X:1
T:Reconfortez le petit cueur de moy
T:Reconfortez le petit cueur de moy
T:Copyright © 
T:Copyright © 
T:Copyright © 
T:Copyright © 
Z:Copyright ©
%%score [ 1 2 3 4 ]
L:1/8
Q:1/4=100
M:2/2
K:F#min
V:1 treble nm="SOPRANO" snm="S."
V:2 treble nm="ALTO" snm="A."
V:3 treble-8 transpose=-12 nm="TENOR" snm="T."
V:4 bass nm="BASS" snm="B."
V:1
"^Editor:  John Henry Fowler""^( Revision:  7 - 22 - 2007 )""^Maestoso" z8 | G8 | z2 A2 A2 A2 | %3
w: |Re~.~.~.|Re- con- for-|
"^Clement Janequin" (G3"^( 1528 )" A B2 c2 | d3 c B3 A/G/ | F4) z2 F2 | (F6 G2 | A2) B2 B2 A2 | %8
w: tez _ _ _|_ _ _ _ _|* le|pe- *|* tit cueur de|
 (B8 | G8) | z2 (BA) (GF) (AG) | (A8 | G8) | z2 A2 A2 A2 | (G3 A B2 c2 | d3 c B3 A/G/ | F4) z2 F2 | %17
w: moy,|_|qui, _ nuict _ et _|jour,|_|sans nul se-|jour, _ _ _|_ _ _ _ _|* Ne|
 (F6 G2 | A2) B2 B2 A2 | B8 | B8 | B4 B4 | c8 | A8 | z2 d2 d2 d2 | c6 B2 | A2 G2 F2 F2 | (E8 | %28
w: my _|_ fait que lan-|quir.|De|bref mour-|ray,|_|Si de vous|n~'~ay, La|bel- le, re- con-|fort.|
 G8) | z2 (BA) (GF) (AG) | (A8 | G8) | z2 A2 A2 A2 | (G3 A B2 c2 | d3 c B3 A/G/ | F4) z4 | %36
w: _|Plus _ n~'~ay _ son- *|gez;|_|Na- vre m~'~a-|vez _ _ _|_ _ _ _ _||
 z2 F2 E3 F | G2 A2 A2 G2 | A4 z4 | z2 F2 (E3 F) | (GABA GFAG) | A4 z4 | z2 F2 E3 F | (GABA GFAG) | %44
w: D~'~un dart _|_ qui m~'~a fe-|ru,|dont je _|suis _ _ _ _ _ _ _|mort.|dont je _|suis _ _ _ _ _ _ _|
 !fermata!A8 |] %45
w: mort.|
V:2
 A,8 | z2 B,2 B,2 B,2 | (A,3 B, C2 D2 | E4) z2 E2 | F4 G4 | A4 z4 | z2 A2 (A4 | A2) G2 F3 F | %8
w: Re~.~.~.|Re- con- for-|tez _ _ _|_ Re-|\-~con- for-|tez|le pe-|* tit cueur de|
 (F2 E2 F2) B,2 | B,2 B,2 ((E4 | E2) DC B,A, B,2 | A,4) z2 C2 | C2 C2 (B,3 C | D2 D2 C2 B,A, | %14
w: moy, _ _ Qui,|nuict et jour,|_ _ _ _ _ _|* Sans|nul se- jour, _|_ _ _ _ _|
 E4) z2 E2 | F4 G4 | A4 z4 | z2 A2 (A4 | A2) G2 F3 F | (F2 E2 F3 E/F/ | G8) | G4 G2 G2 | %22
w: * Sans|nul se-|\-~jour,|Ne my|_ fait que lan-|quir. _ _ _ _|_|De bref mour-|
 E4 E2 (A2 | A2) G2 (F4 | F4) F4 | (A6 G2 | F2 E2 D3) C | B,2 B,2 A,4 | z8 | B,8 | C4 C4 | %31
w: ray Si de|_ vous n~'~ay,|_ La|bel- *|* * * le,|re- con- fort.||Plus|n~'~y son-|
 B,4 z2 B2 | (A3 G F2) F2 | E4 z2 C2 | (B,2 A,2 B,2) B,2 | A,2 A,2 (D4 | D4) z2 E2 | E2 A,2 E3 E | %38
w: gez; Na-|\-~vre _ _ m~'~a-|vez D~'~un|dart _ _ qui|m~'~a fe- ru,|_ Na-|vre m~'~a- vez D~'~un|
 D2 C2 D2 E2 | A,2 A4 (G2 | G2) F2 E3 E | D2 C2 D2 E2 | A,2 A4 (G2 | G2) F2 (E4 | !fermata!E8) |] %45
w: dart qui m~'~a fe-|\-~ru, dont je|_ suis mort. D~'~un|dart qui m~'~a fe-|\-~ru, dont je|_ suis mort.|_|
V:3
 z8 | z8 | z8 | z4 (B4 | B4) e2 e2 | d3 c B2 A2 | d2 d2 (c4 | c4) z2 c2 | d2 e2 e2 d2 | e4 z2 B2 | %10
w: |||Re|_ con- for-|tez le pe- tit|cueur de moy,|_ le|pe- tit cueur de|moy, qui,|
 B2 B2 ((e4 | e2) dc f4) | z2 e2 e2 e2 | f4 z2 c2 | c2 c2 B4 | z2 B2 e2 e2 | (d3 c B2) A2 | %17
w: nuict et jour|_ _ _ _|Qui, nuict et|jour, Sans|nul se- jour,|Qui, nuict et|jour, _ _ Sans|
 d2 d2 (c4 | c4) z2 c2 | d2 e2 e2 d2 | e4 z2 B2 | e4 e4 | A2 A2 e2 e2 | f6 e2 | d3 c B2 B2 | %25
w: nul se- jour|_ Ne|my fait que lan-|\-~guir. De|bref mour-|ray. Si de vous|n~'~ay, La|bel- le, re- con-|
 (A4 e3 d | cB c2) z2 (A2 | A2) G2 c4 | B4 z2 B2 | e4 e4 | e8 | z2 e2 e2 e2 | c4 z4 | z2 e2 e2 e2 | %34
w: fort, _ _|_ _ _ Plus|_ n~'~y son-|\-~gez, Plus|n~'~y son-|gez;|Na- vre m~'~a-|\-~vez|Na- vre m~'~a-|
 f2 f2 d2 d2 | d3 c B2 A2 | d2 d2 c3 c | B2 d2 c2 B2 | B2 A2 B3 c | d3 d c3 d | (e2 dc B2) B2 | %41
w: vez D~'~un dart qui|m~'~a- fe- ru, dont|je suis mort. Na-|vre m~'~a- vez D~'~un|dart qui m~'~a fe-|\-~ru, dont je suis|mort. _ _ _ D~'~un|
 B2 A2 B3 c | d2 (d3 c/B/) (cd) | (e2 dc BA B2) | !fermata!A8 |] %45
w: dart qui m~'~a fe-|\-~ru, dont _ _ je _|suis _ _ _ _ _|mort.|
V:4
 z8 | z8 | z8 | E,8 | z8 | z2 D,2 D,2 D,2 | D,3 E, F,3 F, | F,2 E,2 F,4 | z8 | (E,8 | E,8) | %11
w: |||Re~.~.~.||Re- con- for-|tez le pe- tit|cueur de moy,||Qui,|_|
 z2 F,2 F,2 F,2 | (C,3 D, E,2) E,2 | (D,C,D,E,) F,4 | E,8 | z8 | z2 D,2 D,2 D,2 | (D,3 E, (F,4 | %18
w: Qui, nuict et|jour, _ _ Sans|nul _ _ _ se-|jour.||Ne my fait|que _ _|
 F,2)) E,2 F,4 | z8 | E,8 | E,4 z2 E2 | E2 E2 A,2 A,2 | D6 C2 | B,4 z2 B,2 | F,3 G, A,2 E,2 | %26
w: _ lan- quir.||De|bref~.~.~. De|bref mour- ray De|bref mour-|\-~ray. Si|de vous n~'~ay, La|
 F,2 C,2 D,2 D,2 | E,4 z4 | (E,8 | E,8) | A,4 A,4 | E,3 E, E,2 E,2 | (F,2 G,2 A,2 B,2 | %33
w: bei- le, re- con-|fort.|Plus|_|n~'~y son-|gez Na- vre m~'~a-|\-~vez _ _ _|
 C3 B,/A,/ G,F, A,2) | z2 F,2 =G,2 G,2 | D,4 z2 D,2 | D,2 D,2 A,3 A, | G,2 F,2 E,4 | %38
w: _ _ _ _ _ _|Na- vre ma~'~a-|vez D~'~un|dart D~'~un dart qui|m~'~a fe- ru,|
 z2 F,2 F,2 E,2 | F,3 G, A,2 C,2 | C,2 D,2 E,4 | z2 F,4 E,2 | F,3 G, A,2 (C,2 | C,2) D,2 E,4 | %44
w: D~'~un dart qui|m~'~a fe- ru, dont|je suis mort.|qui _|m~'~a fe- ru, dont|_ je suis|
 !fermata!A,8 |] %45
w: mort.|

